frontend/public/svg/interface/folder-remove.svg

<svg width="159" height="141" viewBox="0 0 159 141" fill="none" xmlns="http://www.w3.org/2000/svg">
<g clip-path="url(#clip0)">
<path d="M136.193 0.381787C138.92 0.684579 141.653 0.939373 144.372 1.2987C153.196 2.46828 157.575 7.3546 157.925 16.35C158.489 30.8522 158.119 45.3297 157.493 59.8313C156.936 72.7545 157.429 85.7206 157.33 98.6667C157.279 105.301 157.293 111.967 156.659 118.559C155.305 132.659 147.326 139.965 133.241 140.481C129.828 140.606 126.405 140.51 122.99 140.506C105.358 140.487 87.727 140.531 70.0961 140.425C54.9975 140.334 39.8972 140.184 24.8047 139.804C20.625 139.634 16.4739 139.028 12.4181 137.997C6.35609 136.543 2.85232 132.377 1.80565 126.226C1.45245 124.267 1.28381 122.279 1.30199 120.288C1.59026 105.68 2.01139 91.0747 2.27516 76.4666C2.43767 67.3919 2.42869 58.313 2.40418 49.2363C2.30299 47.4686 2.08082 45.7097 1.73929 43.9728C1.01378 38.8598 2.81106 34.871 7.64974 33.0568C11.9411 31.3529 16.4443 30.2507 21.0333 29.7813C33.5443 28.7917 46.0992 28.2147 58.647 27.7781C66.4628 27.5065 74.2976 27.7882 82.1215 27.8194C83.1882 27.8239 84.2548 27.8194 85.3757 27.8194C85.3757 24.8161 85.3112 22.1859 85.3931 19.5601C85.4769 16.798 85.5698 14.0246 85.8871 11.2826C86.532 5.68285 88.7975 2.98578 94.3178 2.26193C100.315 1.47571 106.388 1.28066 112.431 0.886248C115.935 0.657529 119.448 0.544924 122.956 0.379883L136.193 0.381787ZM96.0919 12.761C96.0919 16.7857 96.0584 20.5308 96.1061 24.2748C96.1313 26.265 96.4118 28.2556 96.3776 30.2426C96.308 34.3186 94.9589 36.081 91.014 37.0005C88.6769 37.5994 86.2798 37.93 83.8692 37.9866C76.0427 37.9807 68.2156 37.7788 60.3895 37.6001C47.8229 37.2955 35.2495 37.751 22.7371 38.9644C19.5678 39.3153 16.4289 39.9033 13.3461 40.7233C10.4441 41.4582 10.143 41.9785 10.0385 44.8466C9.9579 47.0558 10.0068 49.2745 10.0584 51.4877C10.3525 64.2134 10.7595 76.9377 10.9427 89.6654C11.1065 101.066 10.9626 112.472 11.0968 123.871C11.1458 128.045 12.4671 129.462 16.5693 129.924C21.7098 130.503 26.878 131.152 32.0378 131.18C51.4409 131.285 70.8455 131.127 90.2492 131.115C99.8382 131.108 109.426 131.208 119.015 131.253C124.527 131.279 130.043 131.474 135.549 131.262C141.702 131.026 144.825 128.444 146.334 122.454C147.039 119.667 147.41 116.806 147.438 113.93C147.488 106.182 147.18 98.4321 147.172 90.6829C147.163 79.8383 147.234 68.9936 147.386 58.1491C147.497 49.7365 147.863 41.3266 147.924 32.9141C147.96 27.9362 147.693 22.9516 147.434 17.9763C147.194 13.3461 146.693 12.8958 142.233 12.4819C141.137 12.3799 140.033 12.2508 138.934 12.2521C125.925 12.269 112.915 12.304 99.9065 12.3581C98.629 12.4253 97.3559 12.5598 96.0926 12.761H96.0919Z" fill="black"/>
<path d="M80.9337 86.3898C73.972 86.3898 67.0084 86.4593 60.0486 86.3476C57.9165 86.2722 55.7988 85.9649 53.7325 85.4301C52.8403 85.2625 52.0383 84.7758 51.4747 84.0591C50.9112 83.3424 50.624 82.4444 50.6666 81.5315C50.624 79.5172 51.4211 78.0227 53.3242 77.3119C54.4636 76.807 55.6715 76.4763 56.9079 76.3307C72.4101 75.5211 87.9147 74.7583 103.422 74.0422C104.314 73.9968 105.209 74.0669 106.084 74.2502C108.922 74.861 110.921 77.3463 110.779 79.9753C110.712 81.2482 110.202 82.4574 109.339 83.3898C108.477 84.3222 107.315 84.9187 106.06 85.0753C101.812 85.575 97.523 85.7901 93.2448 85.9376C89.1451 86.076 85.0378 85.9675 80.9337 85.9675V86.3898Z" fill="black"/>
</g>
<defs>
<clipPath id="clip0">
<rect width="158" height="141" fill="white" transform="translate(0.777344)"/>
</clipPath>
</defs>
</svg>

<svg xmlns="http://www.w3.org/2000/svg" width="159" height="141" fill="none" viewBox="0 0 159 141"><g fill="#000" clip-path="url(#a)"><path d="M136.193.382c2.727.303 5.46.557 8.179.917 8.824 1.17 13.203 6.056 13.553 15.051.564 14.502.194 28.98-.432 43.481-.557 12.923-.064 25.89-.163 38.836-.051 6.634-.037 13.3-.671 19.892-1.354 14.1-9.333 21.406-23.418 21.922-3.413.125-6.836.029-10.251.025-17.632-.019-35.263.025-52.894-.081-15.099-.091-30.199-.241-45.291-.621a60.2 60.2 0 0 1-12.387-1.807c-6.062-1.454-9.566-5.62-10.612-11.771a32 32 0 0 1-.504-5.938c.288-14.608.71-29.213.973-43.821.163-9.075.154-18.154.13-27.23a39 39 0 0 0-.666-5.264c-.725-5.113 1.072-9.102 5.91-10.916a50 50 0 0 1 13.384-3.276c12.511-.99 25.066-1.566 37.614-2.003 7.816-.271 15.65.01 23.475.041 1.066.005 2.133 0 3.254 0 0-3.003-.065-5.633.017-8.259.084-2.762.177-5.535.494-8.277.645-5.6 2.91-8.297 8.43-9.021 5.998-.786 12.071-.981 18.114-1.376 3.504-.228 7.017-.341 10.525-.506zM96.092 12.76c0 4.025-.034 7.77.014 11.514.025 1.99.306 3.98.272 5.968-.07 4.076-1.42 5.838-5.364 6.758a32 32 0 0 1-7.145.986c-7.826-.006-15.653-.208-23.48-.387a312 312 0 0 0-37.652 1.364 64 64 0 0 0-9.39 1.76c-2.903.734-3.204 1.255-3.308 4.123-.081 2.209-.032 4.428.02 6.64.293 12.726.7 25.45.884 38.178.164 11.401.02 22.807.154 34.206.049 4.174 1.37 5.591 5.472 6.053 5.14.579 10.309 1.228 15.469 1.256 19.403.105 38.808-.053 58.211-.065 9.59-.007 19.177.093 28.766.138 5.512.026 11.028.221 16.534.009 6.153-.236 9.276-2.818 10.785-8.808a36.2 36.2 0 0 0 1.104-8.524c.05-7.748-.258-15.498-.266-23.247q-.014-16.268.214-32.534c.111-8.413.477-16.822.538-25.235.036-4.978-.231-9.962-.49-14.938-.24-4.63-.741-5.08-5.201-5.494-1.096-.102-2.2-.231-3.299-.23q-19.514.025-39.027.106-1.918.101-3.814.403z"/><path d="M80.934 86.39c-6.962 0-13.926.07-20.885-.042a29.4 29.4 0 0 1-6.316-.918 3.76 3.76 0 0 1-2.258-1.37 3.8 3.8 0 0 1-.808-2.529c-.043-2.014.754-3.508 2.657-4.22a12.4 12.4 0 0 1 3.584-.98q23.253-1.215 46.514-2.289c.892-.045 1.787.025 2.662.208 2.838.611 4.837 3.096 4.695 5.725a5.45 5.45 0 0 1-1.44 3.415 5.37 5.37 0 0 1-3.279 1.685c-4.248.5-8.537.715-12.815.863-4.1.138-8.207.03-12.311.03z"/></g><defs><clipPath id="a"><path fill="#fff" d="M.777 0h158v141h-158z"/></clipPath></defs></svg>
